X:1
T:Feather River, 76.76.77.76
T:Feather River, 76.76.77.76
T:C. S. Champness, 1901
T:Public Domain Courtesy of the Cyber Hymnal™
C:C. S. Champness, 1901
Z:Public Domain
Z:Courtesy of the Cyber Hymnal™
%%score ( 1 2 ) ( 3 4 )
L:1/8
M:3/4
K:A
V:1 treble 
V:2 treble 
V:3 bass 
V:4 bass 
V:1
 [CE]4 [CA]2 | ([Ec]2 [DB]2) [CA]2 | [DG]4 [DF]2 | [CE]4 [CE]2 | ([DF]2 [FA]2) [DF]2 | %5
 (E2 A2) [Ec]2 | [EB]6 | c4 [GB]2 | [FA]4 [E^A]2 | B4 [FA]2 | [EG]4 [DB]2 | [CA]4 [CF]2 | %12
 [B,E]4 [B,^D]2 | [B,E]6 | E2 F2 [EG]2 | ([EA]2 [DB]2) [Cc]2 | E4 [B,D]2 | [A,C]6 | %18
 (F2 G2) [F^A]2 | (B2 c2) [Fd]2 | [FB]4 [FA]2 | [EG]6 | [Ee]4 [Ed]2 | (c2 B2) [EA]2 | [DB]4 [DG]2 | %25
 (A2 G2) [DF]2 | (E2 d2) [Ec]2 | c4 [=DB]2 | [CA]6 |] %29
V:2
 x6 | x6 | x6 | x6 | x6 | E4 x2 | x6 | (^E2 F2) x2 | x6 | (^D2 E2) x2 | x6 | x6 | x6 | x6 | %14
 B,4 x2 | x6 | (B,2 A,2) x2 | x6 | F4 x2 | F4 x2 | x6 | x6 | x6 | E4 x2 | x6 | C4 x2 | E4 x2 | %27
 (E2 ^D2) x2 | x6 |] %29
V:3
 [A,,A,]4 [A,,E,]2 | [A,,A,]4 [A,,E,]2 | [A,,F,]4 [A,,G,]2 | [A,,A,]4 [A,,A,]2 | [D,A,]4 [D,A,]2 | %5
 [C,A,]4 [A,,A,]2 | [E,G,]6 | G,4 [^E,C]2 | [F,C]4 [F,C]2 | B,4 [^D,B,]2 | [E,B,]4 [G,,E,]2 | %11
 [A,,E,]4 [A,,A,]2 | [B,,G,]4 [B,,A,]2 | [E,G,]6 | [E,G,]4 [D,B,]2 | ([C,A,]2 [B,,G,]2) [A,,A,]2 | %16
 B,4 [G,,E,]2 | [A,,E,]6 | [F,^A,]4 [E,C]2 | ([D,B,]2 [C,^A,]2) [B,,B,]2 | [D,B,]4 [^D,B,]2 | %21
 [E,B,]6 | [G,B,]2 [F,A,]2 [G,B,]2 | [A,C]4 [A,C]2 | [E,G,]4 [^E,B,]2 | [F,A,]4 [D,A,]2 | %26
 ([C,A,]2 [B,,G,]2) [A,,A,]2 | [E,A,]4 [E,G,]2 | [A,,A,]6 |] %29
V:4
 x6 | x6 | x6 | x6 | x6 | x6 | x6 | (C,2 ^D,2) x2 | x6 | (B,,2 C,2) x2 | x6 | x6 | x6 | x6 | x6 | %15
 x6 | (G,,2 F,,2) x2 | x6 | x6 | x6 | x6 | x6 | x6 | x6 | x6 | x6 | x6 | x6 | x6 |] %29

